icons/sketchup-dark.svg

<svg width="256" height="256" viewBox="0 0 256 256" fill="none" xmlns="http://www.w3.org/2000/svg">
<rect width="256" height="256" rx="60" fill="#282828"/>
<path d="M216 74.4534L154.039 38.7394C154.039 38.7394 144.222 33 128.561 33C112.253 33 102.804 38.9144 102.804 38.9144L45.4095 71.7586L132.726 121.944V223.364L190.19 190.554C190.19 190.554 200.462 184.885 208.266 171.411C215.143 159.547 216 148.069 216 148.069V74.4534ZM122.559 90.9717C122.559 90.9717 135.368 88.6095 146.199 94.8563C157.031 101.103 163.418 104.778 163.418 104.778C163.418 104.778 163.435 113.474 163.435 126.476C163.435 136.887 154.616 147.684 154.616 147.684L154.634 109.485L122.559 90.9717ZM173.339 174.753L154.634 185.48V175.418L169.192 167.089C183.051 157.098 185.343 142.364 185.343 137.255L185.291 92.0041L145.587 69.1514C145.587 69.1514 139.55 65.1968 128.701 65.1968C117.852 65.1968 111.938 68.8539 111.938 68.8539L97.9917 76.8681L89.1901 71.7761L108.456 60.7697C108.456 60.7697 115.997 56.5877 128.631 56.5877C140.233 56.5877 149.262 61.1197 149.262 61.1197L194.092 87.0171L194.04 136.397C194.355 143.991 190.82 162.54 173.339 174.753Z" fill="#005F9E"/>
<path d="M41 104.603L102.209 139.722L102.156 150.186L67.3349 130.22L45.4271 142.679L102.121 175.348L102.156 185.427L41.42 150.483C41.5774 154.578 45.2871 167.194 52.3914 176.958C59.6006 186.845 67.8248 191.044 67.8248 191.044L123.959 223.364V126.983L41.0525 79.3704L41 104.603Z" fill="#005F9E"/>
</svg>

<svg xmlns="http://www.w3.org/2000/svg" width="256" height="256" fill="none"><rect width="256" height="256" fill="#282828" rx="60"/><path fill="#005F9E" d="M216 74.453 154.039 38.74S144.222 33 128.561 33c-16.308 0-25.757 5.914-25.757 5.914L45.41 71.76l87.316 50.185v101.42l57.464-32.81s10.272-5.669 18.076-19.143C215.143 159.548 216 148.07 216 148.07zm-93.441 16.519s12.809-2.362 23.64 3.884 17.219 9.922 17.219 9.922.017 8.696.017 21.698c0 10.411-8.819 21.208-8.819 21.208l.018-38.199zm50.78 83.781-18.705 10.727v-10.062l14.558-8.329c13.859-9.991 16.151-24.725 16.151-29.834l-.052-45.25-39.704-22.854s-6.037-3.954-16.886-3.954-16.763 3.657-16.763 3.657l-13.946 8.014-8.802-5.092 19.266-11.006s7.541-4.182 20.175-4.182c11.602 0 20.631 4.532 20.631 4.532l44.83 25.897-.052 49.38c.315 7.594-3.22 26.143-20.701 38.356"/><path fill="#005F9E" d="m41 104.603 61.209 35.119-.053 10.464-34.821-19.966-21.908 12.459 56.694 32.669.035 10.079-60.736-34.944c.157 4.095 3.867 16.711 10.971 26.475 7.21 9.887 15.434 14.086 15.434 14.086l56.134 32.32v-96.381L41.053 79.37z"/></svg>
